dist/svg/static/myAudi-destinations-small.svg

<svg xmlns="http://www.w3.org/2000/svg" width="24" height="24" viewBox="0 0 24 24"><g fill="none" stroke="currentColor"><g stroke-miterlimit="10"><path d="M13.5 10.5h-3c-1.1 0-2-.9-2-2v-3c0-1.1.9-2 2-2h3c1.1 0 2 .9 2 2v3c0 1.1-.9 2-2 2zM15 21.5H5.5V15s-.072-1.5 1.25-1.5H12"/></g><path d="M19 23s-4-5.8-4-8a4.09 4.09 0 0 1 4-4 4.09 4.09 0 0 1 4 4c0 2.2-4 8-4 8z"/></g></svg>

<?xml version="1.0" encoding="UTF-8" standalone="no"?>
<svg width="24px" height="24px" viewBox="0 0 24 24" version="1.1" xmlns="http://www.w3.org/2000/svg" xmlns:xlink="http://www.w3.org/1999/xlink">
    <!-- Generator: sketchtool 46.2 (44496) - http://www.bohemiancoding.com/sketch -->
    <title>myaudi-destinations-small</title>
    <desc>Created with sketchtool.</desc>
    <defs></defs>
    <g id="icons-published" stroke="none" stroke-width="1" fill="none" fill-rule="evenodd">
        <g id="briefing" transform="translate(-1508.000000, -1050.000000)"></g>
        <g id="myaudi-destinations-small" stroke="#000000">
            <path d="M13.5,10.5 L10.5,10.5 C9.4,10.5 8.5,9.6 8.5,8.5 L8.5,5.5 C8.5,4.4 9.4,3.5 10.5,3.5 L13.5,3.5 C14.6,3.5 15.5,4.4 15.5,5.5 L15.5,8.5 C15.5,9.6 14.6,10.5 13.5,10.5 Z" id="Shape"></path>
            <path d="M15,21.5 L5.5,21.5 L5.5,15 C5.5,15 5.4,13.5 6.7,13.5 L12,13.5" id="Path"></path>
            <path d="M19,23 C19,23 15,17.2 15,15 C15,12.8 16.8,11 19,11 C21.2,11 23,12.8 23,15 C23,17.2 19,23 19,23 Z" id="Shape"></path>
        </g>
    </g>
</svg>
